icons/chat-off-line.svg

<svg xmlns="http://www.w3.org/2000/svg" width="24" height="24" fill="none"><g clip-path="url(#a)"><g><path fill="#121212" d="M2.80801 1.39294L22.607 21.1929L21.192 22.6069L17.584 18.9989L6.45501 18.9999L2.00001 22.4999V3.99994C2.00001 3.82994 2.04201 3.67094 2.11601 3.53094L1.39301 2.80794L2.80801 1.39294ZM3.99901 5.41294L4.00001 18.3849L5.76301 16.9999H15.584L4.00001 5.41194L3.99901 5.41294ZM21 2.99994C21.2652 2.99994 21.5196 3.1053 21.7071 3.29284C21.8946 3.48037 22 3.73473 22 3.99994V17.7849L20 15.7849V4.99994L9.21301 4.99894L7.21401 2.99994H21Z"/></g></g><defs><clipPath id="a"><rect width="24" height="24" fill="white"/></clipPath></defs></svg>

<svg width="24" height="24" fill="none" xmlns="http://www.w3.org/2000/svg"><g clip-path="url(#a)"><path d="m2.808 1.393 19.799 19.8-1.415 1.414-3.608-3.608H6.455L2 22.5V4c0-.17.042-.328.116-.468l-.723-.723 1.415-1.415Zm1.191 4.02L4 18.385 5.763 17h9.821L4 5.412h-.001ZM21 3a1 1 0 0 1 1 1v13.785l-2-2V5L9.213 4.999l-1.999-2H21Z" /></g><defs><clipPath id="a"><path fill="#fff" d="M0 0h24v24H0z"/></clipPath></defs></svg>
